X:1
T:Bagpipe
T:Sonatina
%%score { 1 | 2 }
L:1/8
M:4/4
K:C
V:1 treble nm="Piano" snm="Pno."
V:2 bass 
V:1
 c2 e2 d2 f2 | e2 g2 c2 de | f2 e2 d2 ef | g2 e2 c4 | c2 e2 d2 f2 | e2 g2 c2 de | f2 e2 d2 ef | %7
 g2 e2 c4 || edef e2 g2- | g2 f2 e2 d2 | edef e2 g2- | g2 f2 e2 d2 | c2 e2 d2 f2 | e2 g2 c2 de | %14
 f2 e2 d2 ef | g2 e2 c4 |] %16
V:2
 C,8 | C,4 F,4 | D,4 G,4 | C,8 | C,8 | C,4 F,4 | D,4 G,4 | C,8 || C,6 E,2 | D,4 G,4 | C,6 E,2 | %11
 D,4 G,4 | C,8 | C,4 F,4 | D,4 G,4 | C,8 |] %16

